icons/src/fluent/svg/arrow_circle_up_24_regular.svg

<svg width="24" height="24" viewBox="0 0 24 24" fill="none" xmlns="http://www.w3.org/2000/svg">
<path d="M7.47028 12.2801L7.5544 12.3527C7.84801 12.5706 8.26467 12.5464 8.53094 12.2801L11.2503 9.56078L11.2506 16.2505L11.2575 16.3523C11.3071 16.7183 11.6209 17.0005 12.0006 17.0005L12.1024 16.9936C12.4685 16.944 12.7506 16.6302 12.7506 16.2505L12.7503 9.55878L15.471 12.2807L15.5551 12.3534C15.8487 12.5713 16.2653 12.5471 16.5317 12.2809C16.8246 11.9881 16.8247 11.5132 16.5319 11.2203L12.5319 7.21873L12.4477 7.14609C12.1541 6.92816 11.7374 6.95233 11.4711 7.21863L7.47028 11.2195L7.39766 11.3036C7.17981 11.5972 7.20401 12.0138 7.47028 12.2801ZM22.001 12C22.001 6.47715 17.5238 2 12.001 2C6.47813 2 2.00098 6.47715 2.00098 12C2.00098 17.5228 6.47813 22 12.001 22C17.5238 22 22.001 17.5228 22.001 12ZM3.50098 12C3.50098 7.30558 7.30656 3.5 12.001 3.5C16.6954 3.5 20.501 7.30558 20.501 12C20.501 16.6944 16.6954 20.5 12.001 20.5C7.30656 20.5 3.50098 16.6944 3.50098 12Z" fill="#212121"/>
</svg>

<svg width="24" height="24" fill="none" viewBox="0 0 24 24" xmlns="http://www.w3.org/2000/svg"><path d="m7.47 12.281.084.073a.75.75 0 0 0 .977-.073l2.72-2.72v6.69l.006.102a.75.75 0 0 0 .743.648l.102-.006a.75.75 0 0 0 .648-.744V9.56l2.72 2.722.085.072a.75.75 0 0 0 .977-1.133l-4-4.001-.085-.073a.75.75 0 0 0-.976.073l-4.001 4-.073.085a.75.75 0 0 0 .073.976Z" fill="#212121"/><path d="M22 12.001c0-5.523-4.476-10-10-10-5.522 0-10 4.477-10 10s4.478 10 10 10c5.524 0 10-4.477 10-10Zm-18.5 0a8.5 8.5 0 1 1 17 0 8.5 8.5 0 0 1-17 0Z" fill="#212121"/></svg>
